assets/icons/printer/network.svg

<?xml version="1.0" encoding="UTF-8" standalone="no"?>
<svg
   viewBox="0 0 24 24"
   height="24"
   width="24"
   version="1.1"
   id="svg4"
   sodipodi:docname="network.svg"
   inkscape:version="1.2 (1:1.2.1+202207142221+cd75a1ee6d)"
   xmlns:inkscape="http://www.inkscape.org/namespaces/inkscape"
   xmlns:sodipodi="http://sodipodi.sourceforge.net/DTD/sodipodi-0.dtd"
   xmlns="http://www.w3.org/2000/svg"
   xmlns:svg="http://www.w3.org/2000/svg">
  <defs
     id="defs8" />
  <sodipodi:namedview
     id="namedview6"
     pagecolor="#ffffff"
     bordercolor="#666666"
     borderopacity="1.0"
     inkscape:pageshadow="2"
     inkscape:pageopacity="0.0"
     inkscape:pagecheckerboard="0"
     showgrid="true"
     inkscape:zoom="28"
     inkscape:cx="9.0714286"
     inkscape:cy="12.410714"
     inkscape:window-width="1850"
     inkscape:window-height="1016"
     inkscape:window-x="0"
     inkscape:window-y="0"
     inkscape:window-maximized="1"
     inkscape:current-layer="svg4"
     inkscape:showpageshadow="2"
     inkscape:deskcolor="#d1d1d1">
    <inkscape:grid
       type="xygrid"
       id="grid821" />
  </sodipodi:namedview>
  <path
     id="rect867"
     style="fill:#808080;fill-opacity:1;fill-rule:evenodd;stroke-width:0.5;stroke-linecap:round;stroke-linejoin:round"
     d="M 6 2 L 6 7.0078125 C 4.9331323 7.0375525 4.0204102 7.1789505 3.2949219 7.640625 C 2.4585421 8.1728665 2 9.1500023 2 10.5 L 2 14.5 C 2 15.849998 2.4585421 16.827134 3.2949219 17.359375 C 4.0204102 17.82105 4.9331323 17.962447 6 17.992188 L 6 18 L 7 18 L 8 18 L 11 18 L 11 19 L 13 19 L 13 18 L 16 18 L 17 18 L 18 18 L 18 17.992188 C 19.066868 17.962447 19.979591 17.82105 20.705078 17.359375 C 21.541458 16.827134 22 15.849998 22 14.5 L 22 10.5 C 22 9.1500023 21.541458 8.1728665 20.705078 7.640625 C 19.979591 7.1789505 19.066868 7.0375525 18 7.0078125 L 18 2 L 6 2 z M 7 3 L 17 3 L 17 7 L 7 7 L 7 3 z M 6.5 8 L 7 8 L 17 8 L 17.5 8 C 18.716664 8 19.631304 8.1416183 20.169922 8.484375 C 20.708539 8.8271317 21 9.3500021 21 10.5 L 21 14.5 C 21 15.649998 20.708539 16.172868 20.169922 16.515625 C 19.708166 16.80947 18.967853 16.954545 18 16.990234 L 18 17 L 17 17 L 16 17 L 8 17 L 7 17 L 6 17 L 6 16.990234 C 5.0321471 16.954544 4.2918337 16.80947 3.8300781 16.515625 C 3.2914607 16.172868 3 15.649998 3 14.5 L 3 10.5 C 3 9.3500021 3.2914607 8.8271317 3.8300781 8.484375 C 4.3686956 8.1416183 5.2833357 8 6.5 8 z M 18 10 A 1 1 0 0 0 17 11 A 1 1 0 0 0 18 12 A 1 1 0 0 0 19 11 A 1 1 0 0 0 18 10 z M 7 15 L 7 16 L 17 16 L 17 15 L 7 15 z M 5 21 L 5 22 L 19 22 L 19 21 L 5 21 z " />
</svg>

<svg height="24" width="24" xmlns="http://www.w3.org/2000/svg"><path style="fill:gray;fill-opacity:1;stroke-width:.5;stroke-linecap:round;stroke-linejoin:round" d="M6 2v5.008c-1.067.03-1.98.171-2.705.633C2.459 8.173 2 9.15 2 10.5v4c0 1.35.459 2.327 1.295 2.86.725.461 1.638.602 2.705.632V18h5v1h2v-1h5v-.008c1.067-.03 1.98-.171 2.705-.633C21.541 16.827 22 15.85 22 14.5v-4c0-1.35-.459-2.327-1.295-2.86-.725-.461-1.638-.602-2.705-.632V2H6zm1 1h10v4H7V3zm-.5 5h11c1.217 0 2.131.142 2.67.484.539.343.83.866.83 2.016v4c0 1.15-.291 1.673-.83 2.016-.462.293-1.202.439-2.17.474V17H6v-.01c-.968-.035-1.708-.18-2.17-.474C3.291 16.173 3 15.65 3 14.5v-4c0-1.15.291-1.673.83-2.016C4.37 8.142 5.283 8 6.5 8zM18 10a1 1 0 0 0-1 1 1 1 0 0 0 1 1 1 1 0 0 0 1-1 1 1 0 0 0-1-1zM7 15v1h10v-1H7zm-2 6v1h14v-1H5z"/></svg>
